!!!!SEGMENT: pl-kj--mus-ant-pract-p-1398--001_scacchi-marco--herr-gib-friede-dem-lande.krn
!!!cenid: 16xx:1764
!!!COM: Scacchi, Marco
!!!COM-rismID: pe30013433
!!!CDT: ~1605-1662
!!!CNT: Italian
!!!OTL: Herr gib Friede dem Lande
!!!PDT: 1646
!!!AGN:
!!!SMS-siglum: PL-Kj
!!!SMS-shelfmark: Mus.ant.pract. P 1398
!!!SMS-shelfwork: 001 W
!!!SMS-variant:
!!!SMS-altvar:
!!!NIFC-rismSourceID: 1001207182
!!!NIFC-rismChildID: 1001207182
!!!NIFC-islandoraID: none
!!!URL-pdf-islandora:
!!!URL-scan: https://jbc.bj.uj.edu.pl/dlibra/doccontent?id=295678, Canto II (str. 11-12):
!!!URL-scan: https://jbc.bj.uj.edu.pl/dlibra/doccontent?id=295682, Alto (str. 25-26):
!!!URL-scan: https://jbc.bj.uj.edu.pl/dlibra/doccontent?id=295679, Tenor (str. 35-36):
!!!URL-scan: https://jbc.bj.uj.edu.pl/dlibra/doccontent?id=295680, Basso (str. 34):
!!!URL-scan: https://jbc.bj.uj.edu.pl/dlibra/doccontent?id=295681, Bassus Continuus (str. 28):
!!!URL-scan: https://jbc.bj.uj.edu.pl/dlibra/doccontent?id=295684
!!!IIIF:
!!!ONB-nifc:
!!!AIN: 1 alto 1 bass 2 soprn 1 tenor
!!!key: g
**kern	**fba	**kern	**text	**text	**kern	**text	**text	**kern	**text	**text	**kern	**text	**text	**kern	**text	**text
*part6	*part6	*part5	*part5	*part5	*part4	*part4	*part4	*part3	*part3	*part3	*part2	*part2	*part2	*part1	*part1	*part1
*staff6	*	*staff5	*staff5	*staff5	*staff4	*staff4	*staff4	*staff3	*staff3	*staff3	*staff2	*staff2	*staff2	*staff1	*staff1	*staff1
*I"Baſſus Continuus.	*	*I"Baſſo.	*	*	*I"Tenor. I	*	*	*I"Alto..	*	*	*I"Canto II.	*	*	*I"Canto	*	*
*I'bc	*	*I'B	*	*	*I'T I	*	*	*I'A	*	*	*I'S II	*	*	*I'C.	*	*
*	*	*ICvox	*	*	*ICvox	*	*	*ICvox	*	*	*ICvox	*	*	*ICvox	*	*
*	*	*Ibass	*	*	*Itenor	*	*	*Ialto	*	*	*Isoprn	*	*	*Isoprn	*	*
*clefF4	*	*clefF4	*	*	*clefC4	*	*	*clefC3	*	*	*clefC1	*	*	*clefC1	*	*
*k[b-]	*	*k[b-]	*	*	*k[b-]	*	*	*k[b-]	*	*	*k[b-]	*	*	*k[b-]	*	*
*g:	*	*g:	*	*	*g:	*	*	*g:	*	*	*g:	*	*	*g:	*	*
*M2/1	*	*M2/1	*	*	*M2/1	*	*	*M2/1	*	*	*M2/1	*	*	*M2/1	*	*
*met(C|)	*	*met(C)	*	*	*met(C)	*	*	*met(C)	*	*	*met(C)	*	*	*met(C)	*	*
=1-	=1-	=1-	=1-	=1-	=1-	=1-	=1-	=1-	=1-	=1-	=1-	=1-	=1-	=1-	=1-	=1-
!LO:TX:a:t=Herr gib Friede dem lande\nHerr wenn ich nur dich habe	!	!	!	!	!	!	!	!	!	!	!	!	!	!	!	!
!LO:TX:b:t=Voi volete.	!	!LO:TX:b:t=Voi volete.	!	!	!LO:TX:b:t=Voi volete.	!	!	!LO:TX:b:t=Voi volete.	!	!	!LO:TX:b:t=Voi volete	!	!	!LO:TX:a:t=Voi volete	!	!
2G\	.	00r	.	.	0r	.	.	0r	.	.	00r	.	.	2dd\	Herr	Herr
2E-X\	.	.	.	.	.	.	.	.	.	.	.	.	.	4r	.	.
.	.	.	.	.	.	.	.	.	.	.	.	.	.	4g/	gib	wen
2C/	.	.	.	.	.	.	.	.	.	.	.	.	.	4cc\	Frie-	ich
.	.	.	.	.	.	.	.	.	.	.	.	.	.	8cc\	-de	dich
.	.	.	.	.	.	.	.	.	.	.	.	.	.	8b-\	dem	nur
!LO:TX:t=P:problem:kreska pseudotaktowa	!	!	!	!	!	!	!	!	!	!	!	!	!	!	!	!
2D/	#	.	.	.	.	.	.	.	.	.	.	.	.	2a\	Lan-	ha-
=2-	=2-	=2-	=2-	=2-	=2-	=2-	=2-	=2-	=2-	=2-	=2-	=2-	=2-	=2-	=2-	=2-
2G\	.	.	.	.	4r	.	.	1r	.	.	.	.	.	2g/	-de	-be
.	.	.	.	.	4d\	Zer-	mein	.	.	.	.	.	.	.	.	.
2F#X\	.	.	.	.	8d\	-reiß	mat-	.	.	.	.	.	.	2r	.	.
.	.	.	.	.	8d\	die	-tes	.	.	.	.	.	.	.	.	.
.	.	.	.	.	8c\	Krie-	hertz	.	.	.	.	.	.	.	.	.
.	.	.	.	.	8c\	-ges	ich	.	.	.	.	.	.	.	.	.
2G\	-	.	.	.	8B-\	Ban-	la-	2g\	Herr	Herr	.	.	.	0r	.	.
.	.	.	.	.	8B-\	-de	-be	.	.	.	.	.	.	.	.	.
.	.	.	.	.	8G/	ſo	nach	.	.	.	.	.	.	.	.	.
.	.	.	.	.	8A\	uns	Him-	.	.	.	.	.	.	.	.	.
!LO:TX:t=P:problem:kreska pseudotaktowa	!	!	!	!	!	!	!	!	!	!	!	!	!	!	!	!
2G\	#	.	.	.	4Bn\	jäm-	-mel	4r	.	.	.	.	.	.	.	.
.	.	.	.	.	8B\	-mer-	und	4d\	gib	wen	.	.	.	.	.	.
.	.	.	.	.	8B\	-lich	nach	.	.	.	.	.	.	.	.	.
*	*	*	*	*	*custos:c	*	*	*	*	*	*	*	*	*	*	*
!	!	!	!	!	!LO:LB:g=original	!	!	!	!	!	!	!	!	!	!	!
=3-	=3-	=3-	=3-	=3-	=3-	=3-	=3-	=3-	=3-	=3-	=3-	=3-	=3-	=3-	=3-	=3-
4Fny\	.	0r	.	.	2.c\	zwin-	Er-	4f\	Frie-	ich	4r	.	.	.	.	.
4C/	.	.	.	.	.	.	.	8e-X\	-de	dich	4g/	Herr	Herr:	.	.	.
.	.	.	.	.	.	.	.	8e-\	dem	nur	.	.	.	.	.	.
2G\	.	.	.	.	.	.	.	2d\	Lan-	ha-	8g/	preiß	mein	.	.	.
.	.	.	.	.	.	.	.	.	.	.	8g/	.	höch	.	.	.
!	!	!	!	!	!LO:N:acc=#	!	!	!	!	!	!	!	!	!	!	!
.	.	.	.	.	4Bn\	.	.	.	.	.	8.g/	die	ſtes	.	.	.
.	.	.	.	.	.	.	.	.	.	.	16f/	Krie-	Gut	.	.	.
!LO:TX:t=P:problem:kreska pseudotaktowa	!	!	!	!	!	!	!	!	!	!	!	!	!	!	!	!
1C	.	.	.	.	2c\	-gen	-den	2c/	-de	-be	8e/	-ges	und	2cc\	Herr	Her
.	.	.	.	.	.	.	.	.	.	.	8e/	Ban-	Ga-	.	.	.
.	.	.	.	.	.	.	.	.	.	.	8c/	-de	-be	.	.	.
.	.	.	.	.	.	.	.	.	.	.	8d/	ſo	nach	.	.	.
.	.	.	.	.	2r	.	.	2r	.	.	4e/	uns	Him-	4r	.	.
.	.	.	.	.	.	.	.	.	.	.	8e/	jäm-	-mel	4g/	gib	wenn
.	.	.	.	.	.	.	.	.	.	.	8e/	-mer-	und	.	.	.
*	*	*	*	*	*	*	*	*	*	*	*custos:f#	*	*	*	*	*
!	!	!	!	!	!	!	!	!	!	!	!LO:LB:g=original	!	!	!	!	!
=4-	=4-	=4-	=4-	=4-	=4-	=4-	=4-	=4-	=4-	=4-	=4-	=4-	=4-	=4-	=4-	=4-
4D/	.	1r	.	.	0r	.	.	00r	.	.	4f#X/	-lich	nach	4b-\	Frie-	ich
4E-X\	.	.	.	.	.	.	.	.	.	.	2g/	zwin-	Er-	8b-\	-de	dich
.	.	.	.	.	.	.	.	.	.	.	.	.	.	8a\	dem	nur
4C/	#	.	.	.	.	.	.	.	.	.	.	.	.	2a\	Lan-	ha-
4D\	.	.	.	.	.	.	.	.	.	.	4f#X/	.	.	.	.	.
*custos:GG	*	*	*	*	*	*	*	*	*	*	*	*	*	*custos:g	*	*
!LO:LB:g=original	!	!	!	!	!	!	!	!	!	!	!	!	!	!LO:LB:g=original	!	!
2.GG/	.	4r	.	.	.	.	.	.	.	.	2g/	-gen	-den.	2g/	-de	-be
.	.	4GG/	Der	frag	.	.	.	.	.	.	.	.	.	.	.	.
.	.	4GG/	Jam-	ich	.	.	.	.	.	.	2r	.	.	2r	.	.
!LO:TX:t=P:problem:kreska pseudotaktowa	!	!	!	!	!	!	!	!	!	!	!	!	!	!	!	!
4AA/	.	4AA/	-mer	nicht	.	.	.	.	.	.	.	.	.	.	.	.
=5-	=5-	=5-	=5-	=5-	=5-	=5-	=5-	=5-	=5-	=5-	=5-	=5-	=5-	=5-	=5-	=5-
4BB-/	.	4BB-/	will	weil	1r	.	.	.	.	.	00r	.	.	0r	.	.
4C/	.	4C/	uns	ſie	.	.	.	.	.	.	.	.	.	.	.	.
4D/	.	4D/	an	ſelbst	.	.	.	.	.	.	.	.	.	.	.	.
4Eny\	.	4E\	die	ver-	.	.	.	.	.	.	.	.	.	.	.	.
2D/	.	4F#X\	See-	-ge-	2d\	Herr	Herr	.	.	.	.	.	.	.	.	.
.	.	4D/	-le	-hen	.	.	.	.	.	.	.	.	.	.	.	.
!LO:TX:t=P:problem:kreska pseudotaktowa	!	!	!	!	!	!	!	!	!	!	!	!	!	!	!	!
2E-X\	.	1G\	brin-	wer-	4r	.	.	.	.	.	.	.	.	.	.	.
.	.	.	.	.	4G/	gib	wen	.	.	.	.	.	.	.	.	.
=6-	=6-	=6-	=6-	=6-	=6-	=6-	=6-	=6-	=6-	=6-	=6-	=6-	=6-	=6-	=6-	=6-
1D	.	.	.	.	4B-y\	Frie-	ich	1r	.	.	.	.	.	4r	.	.
.	.	.	.	.	8B-\	-de	dich	.	.	.	.	.	.	4dd\	Zer-	mein
.	.	.	.	.	8A/	dem	nur	.	.	.	.	.	.	.	.	.
.	.	2F#X\	.	.	2A/	Lan-	ha-	.	.	.	.	.	.	8dd\	-reiß	mat-
.	.	.	.	.	.	.	.	.	.	.	.	.	.	8dd\	die	-tes
.	.	.	.	.	.	.	.	.	.	.	.	.	.	8cc\	Krie-	hertz
.	.	.	.	.	.	.	.	.	.	.	.	.	.	8cc\	-ges	ich
2.G\	.	2G\	-gen	-den	2G/	-de	-be	4r	.	.	.	.	.	8b-\	Ban-	la-
.	.	.	.	.	.	.	.	.	.	.	.	.	.	8b-\	-de	-be
.	.	.	.	.	.	.	.	4g\	zer-	mein	.	.	.	8g/	ſo	nach
.	.	.	.	.	.	.	.	.	.	.	.	.	.	8a\	uns	Him-
.	.	2r	.	.	2r	.	.	8g\	-reiß	mat-	.	.	.	4b-\	jäm-	-mel
.	.	.	.	.	.	.	.	8g\	die	-tes	.	.	.	.	.	.
!LO:TX:t=P:problem:kreska pseudotaktowa	!	!	!	!	!	!	!	!	!	!	!	!	!	!	!	!
4D/	.	.	.	.	.	.	.	8f\	Krie-	hertz	.	.	.	8.a\	-mer-	und
.	.	.	.	.	.	.	.	8f\	-ges	ich	.	.	.	.	.	.
.	.	.	.	.	.	.	.	.	.	.	.	.	.	16b-\	-lich	nach
*	*	*	*	*	*	*	*	*custos:e	*	*	*	*	*	*	*	*
!	!	!	!	!	!	!	!	!LO:LB:g=original	!	!	!	!	!	!	!	!
=7-	=7-	=7-	=7-	=7-	=7-	=7-	=7-	=7-	=7-	=7-	=7-	=7-	=7-	=7-	=7-	=7-
2.C/	.	0r	.	.	1r	.	.	8eny\	Ban-	la-	2cc\	Herr	Herr,	4g/	zwin-	Er-
.	.	.	.	.	.	.	.	8e\	-de	-be	.	.	.	.	.	.
.	.	.	.	.	.	.	.	8c/	ſo	nach	.	.	.	4g/	-gen	-den
.	.	.	.	.	.	.	.	8d\	uns	Him-	.	.	.	.	.	.
.	.	.	.	.	.	.	.	4e\	jäm-	-mel	4r	.	.	2r	.	.
4D/	.	.	.	.	.	.	.	8f\	-mer-	und	4a\	gib	wenn	.	.	.
.	.	.	.	.	.	.	.	8f\	-lich	nach	.	.	.	.	.	.
*	*	*	*	*	*	*	*	*	*	*	*	*	*	*custos:g	*	*
!	!	!	!	!	!	!	!	!	!	!	!	!	!	!LO:LB:g=original	!	!
4BB-/	.	.	.	.	4r	.	.	2.f\	zwin-	Er-	4b-\	Frie-	ich	1r	.	.
4GG/	.	.	.	.	4c\	zer-	mein	.	.	.	8a\	-de	dich	.	.	.
.	.	.	.	.	.	.	.	.	.	.	8a\	dem	nur	.	.	.
!LO:TX:t=P:problem:kreska pseudotaktowa	!	!	!	!	!	!	!	!	!	!	!	!	!	!	!	!
2C/	.	.	.	.	8c\	-reiß	mat-	.	.	.	2g/	Lan-	ha-	.	.	.
.	.	.	.	.	8c\	die	-tes	.	.	.	.	.	.	.	.	.
.	.	.	.	.	8B-\	Krie-	hertz	4e\	.	.	.	.	.	.	.	.
.	.	.	.	.	8B-\	-ges	ich	.	.	.	.	.	.	.	.	.
*	*	*custos:F	*	*	*custos:A	*	*	*	*	*	*	*	*	*	*	*
!	!	!LO:LB:g=original	!	!	!LO:LB:g=original	!	!	!	!	!	!	!	!	!	!	!
=8-	=8-	=8-	=8-	=8-	=8-	=8-	=8-	=8-	=8-	=8-	=8-	=8-	=8-	=8-	=8-	=8-
2F\	.	4r	.	.	8A/	Ban-	la-	2f\	-gen	-den	2a\	-de	-be	2r	.	.
.	.	.	.	.	8A/	-de	-be	.	.	.	.	.	.	.	.	.
.	.	4Fny\	zer-	mein	8F/	ſo	nach	.	.	.	.	.	.	.	.	.
.	.	.	.	.	8G/	uns	Him-	.	.	.	.	.	.	.	.	.
4E-X\	.	8.F\	-reiß	mat-	4A/	jäm-	-mel	2r	.	.	2r	.	.	4r	.	.
.	.	16F\	die	-tes	.	.	.	.	.	.	.	.	.	.	.	.
*	*	*	*	*	*	*	*	*	*	*	*	*	*	*	*ij	*ij
4D/	.	8E-X\	Krie-	hertz	8B-\	-mer-	und	.	.	.	.	.	.	4g/	Herr	mein
.	.	8E-\	-ges	ich	8c\	-lich	nach	.	.	.	.	.	.	.	.	.
4BB-/	.	8D/	Ban-	la-	4d\	zwin-	Er-	0r	.	.	1r	.	.	8f/	gib	wenn
.	.	8D/	-de	-be	.	.	.	.	.	.	.	.	.	8f/	Frie-	ich
4C/	.	8BB-/	ſo	nach	4d\	-gen	-den	.	.	.	.	.	.	8d/	-de	dich
.	.	8C/	uns	Him-	.	.	.	.	.	.	.	.	.	8e/	dem	nur
4D/	.	4D/	jäm-	-mel	2r	.	.	.	.	.	.	.	.	8f/	Lan-	ha-
.	.	.	.	.	.	.	.	.	.	.	.	.	.	8f/	-de	-be
!LO:TX:t=P:problem:kreska pseudotaktowa	!	!	!	!	!	!	!	!	!	!	!	!	!	!	!	!
4E-\	.	8E-\	-mer-	und	.	.	.	.	.	.	.	.	.	8g\	Herr	mein
.	.	8E-\	-lich	nach	.	.	.	.	.	.	.	.	.	8g\	gib	wenn
*custos:D	*	*	*	*	*	*	*	*	*	*	*	*	*	*	*	*
!LO:PB:g=original	!	!	!	!	!	!	!	!	!	!	!	!	!	!	!	!
=9-	=9-	=9-	=9-	=9-	=9-	=9-	=9-	=9-	=9-	=9-	=9-	=9-	=9-	=9-	=9-	=9-
4D/	#	4F#X\	zwin-	Er-	0r	.	.	.	.	.	4r	.	.	4a\	Frie-	ich
4GG/	.	2G\	.	.	.	.	.	.	.	.	4dd\	zer-	mein	8b-\	-de	dich
.	.	.	.	.	.	.	.	.	.	.	.	.	.	8cc\	dem	nur
2D/	.	.	.	.	.	.	.	.	.	.	8dd\	-reiß	höch	2a\	Lan-	ha-
.	.	.	.	.	.	.	.	.	.	.	8dd\	die	ſtes	.	.	.
.	.	4F#X\	.	.	.	.	.	.	.	.	8dd\	Krie-	Gut	.	.	.
.	.	.	.	.	.	.	.	.	.	.	8cc\	-ges	und	.	.	.
*	*	*	*	*	*	*	*	*	*	*	*custos:b-	*	*	*	*	*
!	!	!	!	!	!	!	!	!	!	!	!LO:PB:g=original	!	!	!	!	!
2GG/	.	2G\	-gen	-den	.	.	.	4r	.	.	8b-\	Ban-	Ga-	2g/	-de	-be
.	.	.	.	.	.	.	.	.	.	.	8b-\	-de	-be	.	.	.
.	.	.	.	.	.	.	.	4G/	Der	Frag	8g/	ſo	nach	.	.	.
.	.	.	.	.	.	.	.	.	.	.	8a\	uns	him-	.	.	.
*clefC3	*	*	*	*	*	*	*	*	*	*	*	*	*	*	*	*
4.G/	.	2r	.	.	.	.	.	4.G/	Jam-	auch	4b-\	jäm-	-mel	4r	.	.
.	.	.	.	.	.	.	.	.	.	.	8b-\	-mer-	und	4dd\	Zer-	mein
8A/	.	.	.	.	.	.	.	8A/	-mer	nicht	8a\	-lich	nach	.	.	.
=10-	=10-	=10-	=10-	=10-	=10-	=10-	=10-	=10-	=10-	=10-	=10-	=10-	=10-	=10-	=10-	=10-
4B-/	.	1r	.	.	2r	.	.	4B-/	will	weil	4g/	zwin-	Er-	8dd\	-reiß	mat-
.	.	.	.	.	.	.	.	.	.	.	.	.	.	8dd\	die	-tes
4c/	.	.	.	.	.	.	.	4c/	uns	ſie	4g/	-gen	-den	8cc\	Krie-	hertz
.	.	.	.	.	.	.	.	.	.	.	.	.	.	8cc\	-ges	ich
2G/	.	.	.	.	4r	.	.	4d\	an	ſelbſt	2r	.	.	8b-\	Ban-	la-
.	.	.	.	.	.	.	.	.	.	.	.	.	.	8b-\	-de	-be
.	.	.	.	.	4G/	zer-	mein	4e\	die	ver-	.	.	.	8g/	ſo	nach
.	.	.	.	.	.	.	.	.	.	.	.	.	.	8g/	uns	Him-
*clefF4	*	*	*	*	*	*	*	*custos:f#	*	*	*	*	*	*custos:a	*	*
!	!	!	!	!	!	!	!	!LO:LB:g=original	!	!	!	!	!	!LO:PB:g=original	!	!
2D/	#	2D/	Herr	Herr	8d\	-reiß	mat-	4f#X\	See-	-ge-	1r	.	.	4a\	jäm-	-mel
.	.	.	.	.	8d\	die	-tes	.	.	.	.	.	.	.	.	.
.	.	.	.	.	8d\	Krie-	hertz	4f#\	-le	-hen	.	.	.	8a\	-mer-	und
.	.	.	.	.	8c\	-ges	ich	.	.	.	.	.	.	8a\	-lich	nach
*	*	*	*	*	*custos:B-	*	*	*	*	*	*	*	*	*	*	*
!LO:TX:t=P:problem:kreska pseudotaktowa	!	!	!	!LO:LB:g=original	!	!	!	!	!	!	!	!	!	!	!	!
2GG/	.	4r	.	.	8B-\	Ban-	la-	1g\	brin-	wer-	.	.	.	4b-\	zwin-	Er-
.	.	.	.	.	8B-\	-de	-be	.	.	.	.	.	.	.	.	.
.	.	4GG/	gib	wen(n)	8B-\	ſo	nach	.	.	.	.	.	.	4dd\	-gen	-den
.	.	.	.	.	8A/	uns	Him-	.	.	.	.	.	.	.	.	.
*	*	*custos:C	*	*	*	*	*	*	*	*	*	*	*	*	*Xij	*Xij
!	!	!LO:PB:g=original	!	!	!	!	!	!	!	!	!	!	!	!	!	!
=11-	=11-	=11-	=11-	=11-	=11-	=11-	=11-	=11-	=11-	=11-	=11-	=11-	=11-	=11-	=11-	=11-
4.C/	.	4C/	Frie-	ich	4G/	jäm-	-mel	.	.	.	2r	.	.	1r	.	.
.	.	8BB-/	-de	bin	8G/	-mer-	und	.	.	.	.	.	.	.	.	.
8BB-/	.	8BB-/	dem	nur	8B-\	-lich	nach	.	.	.	.	.	.	.	.	.
2AA/	.	2AA/	Lan-	ha-	2c\	zwin-	Er-	2f#X\	.	.	4r	.	.	.	.	.
.	.	.	.	.	.	.	.	.	.	.	4c/	Der	frag	.	.	.
2GG/	.	2GG/	-de	-be	2Bn\	-gen	-den	2g\	-gen	-den	4d/	Jam-	ich	4r	.	.
.	.	.	.	.	.	.	.	.	.	.	4e/	-mer	nicht	4g/	Der	Frag
4D/	.	2r	.	.	2r	.	.	2r	.	.	4fny/	will	weil	4a\	Jam-	auch
!LO:TX:t=P:problem:kreska pseudotaktowa	!	!	!	!	!	!	!	!	!	!	!	!	!	!	!	!
4GG/	.	.	.	.	.	.	.	.	.	.	4g/	uns	ſie	4b-\	-mer	nicht
=12-	=12-	=12-	=12-	=12-	=12-	=12-	=12-	=12-	=12-	=12-	=12-	=12-	=12-	=12-	=12-	=12-
4AA/	.	4r	.	.	1r	.	.	1r	.	.	4a\	an	ſelbst	4cc\	will	weil
4FF/	.	4FF/	Der	frag	.	.	.	.	.	.	4a\	die	ver-	4dd\	uns	ſie
*	*	*	*	*	*	*	*	*	*	*	*custos:b-	*	*	*	*	*
!	!	!	!	!	!	!	!	!	!	!	!LO:LB:g=original	!	!	!	!	!
4GG/	.	4GG/	Jam-	ich	.	.	.	.	.	.	4b-\	See-	-ge-	4.ee-X\	an	ſelbſt
4AA/	.	4AA/	-mer	nicht	.	.	.	.	.	.	4cc\	-le	-hen	.	.	.
.	.	.	.	.	.	.	.	.	.	.	.	.	.	8ee-\	die	ver-
*custos:BB-	*	*	*	*	*	*	*	*	*	*	*	*	*	*	*	*
!LO:LB:g=original	!	!	!	!	!	!	!	!	!	!	!	!	!	!	!	!
2BB-/	.	2BB-/	will	weil	4r	.	.	4r	.	.	4f/	brin-	wer-	4dd\	See-	-ge-
.	.	.	.	.	4B-y\	Der	frag	4d\	Der	frag	4f/	-gen	-den	4dd\	-le	-hen
2C/	.	2C/	uns	ſie	4A/	Jam-	ich	4c/	Jam-	ich	2r	.	.	2r	.	.
.	.	.	.	.	4G/	-mer	nicht	4B-/	-mer	nicht	.	.	.	.	.	.
=13-	=13-	=13-	=13-	=13-	=13-	=13-	=13-	=13-	=13-	=13-	=13-	=13-	=13-	=13-	=13-	=13-
2D/	.	2D/	an	ſelbst	4F/	will	weil	4A/	will	weil	2r	.	.	4r	.	.
*	*	*	*	*	*	*	*	*	*	*	*	*	*	*	*ij	*ij
.	.	.	.	.	4F/	uns	ſie	4A/	uns	die	.	.	.	4ff\	Der	Frag
2E-X\	.	2E-X\	die	ver-	2G/	brin-	ſel-	2r	.	.	4r	.	.	4ee-X\	Jam-	auch
.	.	.	.	.	.	.	.	.	.	.	4b-\	Der	frag	4dd\	-mer	nicht
*	*	*	*	*	*custos:A	*	*	*	*	*	*	*	*	*	*	*
!	!	!	!	!	!LO:LB:g=original	!	!	!	!	!	!	!	!	!	!	!
1F	.	2Fny\	See-	-ge-	4A/	-gen	-ben	2r	.	.	4.a\	Jam-	ich	4.cc\	will	weil
.	.	.	.	.	4f\	Der	frag	.	.	.	.	.	.	.	.	.
.	.	.	.	.	.	.	.	.	.	.	8g/	-mer	nicht	8cc\	uns	ſie
.	.	2F\	-le	-hen	4d\	Jam-	ich	2A/	uns	die	4f/	/will	weil	4dd\	an	ſelbſt
.	.	.	.	.	4c\	-mer	nicht	.	.	.	4e/	uns	ſie	4a\	die	ver-
*	*	*	*	*	*	*	*	*	*	*	*	*	*	*custos:g	*	*
!	!	!	!	!	!	!	!	!	!	!	!	!	!	!LO:LB:g=original	!	!
=14-	=14-	=14-	=14-	=14-	=14-	=14-	=14-	=14-	=14-	=14-	=14-	=14-	=14-	=14-	=14-	=14-
1GG	#	1G	brin-	wer-	4B-\	will	weil	4B-/	an	ſelbſt	4d/	an	ſelbst	2g/	See-	-ge-
.	.	.	.	.	4A/	uns	ſie	4c/	die	ver-	4c/	die	ver-	.	.	.
.	.	.	.	.	4G/	an	ſelbst	4d\	See-	-ge-	2B-/	See-	-ge-	2g/	-le	-hen
.	.	.	.	.	4F/	die	ver-	2d\	-le	-hen	.	.	.	.	.	.
*	*	*	*	*	*	*	*	*	*	*	*	*	*	*	*Xij	*Xij
1GG	.	1GG	.	.	4F/	See-	-ge-	.	.	.	2c/	-le	-hen	1g	drin-	wer-
.	.	.	.	.	4E/	-le	-hen	2c/	brin-	wer-	.	.	.	.	.	.
.	.	.	.	.	2D/	brin-	wer-	.	.	.	2d/	drin-	wer-	.	.	.
!	!	!	!	!	!	!	!	!LO:N:acc=#	!	!	!	!	!	!	!	!
.	.	.	.	.	.	.	.	4Bn/	.	.	.	.	.	.	.	.
*	*	*	*	*	*	*	*	*custos:c	*	*	*	*	*	*	*	*
!	!	!	!	!	!	!	!	!LO:LB:g=original	!	!	!	!	!	!	!	!
=15-	=15-	=15-	=15-	=15-	=15-	=15-	=15-	=15-	=15-	=15-	=15-	=15-	=15-	=15-	=15-	=15-
1C	.	1C	-gen	-den	1C	-gen	-den	1c	-gen	-den	1e	-gen/	-den	1g	-gen	-den
1GG	.	00r	.	.	00r	.	.	0r	.	.	00r	.	.	2r	.	.
.	.	.	.	.	.	.	.	.	.	.	.	.	.	2g/	ſter-	Ob
=16-	=16-	=16-	=16-	=16-	=16-	=16-	=16-	=16-	=16-	=16-	=16-	=16-	=16-	=16-	=16-	=16-
2D/	.	.	.	.	.	.	.	.	.	.	.	.	.	2a\	-ben	ſchon
4.GG/	.	.	.	.	.	.	.	.	.	.	.	.	.	4r	.	.
.	.	.	.	.	.	.	.	.	.	.	.	.	.	8b-\	und	Leib
8D/	.	.	.	.	.	.	.	.	.	.	.	.	.	8f#X/	ver-	und
2GG/	.	.	.	.	.	.	.	1r	.	.	.	.	.	4g/	-der-	Le-
.	.	.	.	.	.	.	.	.	.	.	.	.	.	8g/	-ben	-ben
.	.	.	.	.	.	.	.	.	.	.	.	.	.	8dd\	das	ein-
4B-\	.	.	.	.	.	.	.	.	.	.	.	.	.	8dd\	thut	-mal
.	.	.	.	.	.	.	.	.	.	.	.	.	.	8cc\	mir	zeit-
4A\	.	.	.	.	.	.	.	.	.	.	.	.	.	8cc\	Angſt	-lich
.	.	.	.	.	.	.	.	.	.	.	.	.	.	8b-\	un(d)	ver-
=17-	=17-	=17-	=17-	=17-	=17-	=17-	=17-	=17-	=17-	=17-	=17-	=17-	=17-	=17-	=17-	=17-
2G\	.	.	.	.	.	.	.	4r	.	.	.	.	.	4b-\	weh	-der-
.	.	.	.	.	.	.	.	4g\	das	ein	.	.	.	8b-\	ich	-ben
.	.	.	.	.	.	.	.	.	.	.	.	.	.	8b-\	ver-	und
2D/	#	.	.	.	.	.	.	8g\	thut	zeit-	.	.	.	4a\	-ge-	ſter-
.	.	.	.	.	.	.	.	8fny\	mir	-lich	.	.	.	.	.	.
.	.	.	.	.	.	.	.	8f\	Angſt	hier	.	.	.	4a\	-he	-ben
.	.	.	.	.	.	.	.	8e\	und	ver-	.	.	.	.	.	.
*	*	*	*	*	*	*	*	*	*	*	*	*	*	*custos:g	*	*
!	!	!	!	!	!	!	!	!	!	!	!	!	!	!LO:LB:g=original	!	!
2C/	.	1r	.	.	2r	.	.	4e\	weh	-der-	0r	.	.	4r	.	.
.	.	.	.	.	.	.	.	8.e\	ich	-ben	.	.	.	8g/	ſter-	ob
.	.	.	.	.	.	.	.	.	.	.	.	.	.	8a\	.	.
.	.	.	.	.	.	.	.	16d\	ver-	und	.	.	.	.	.	.
2GG/	.	.	.	.	4r	.	.	4d\	-ge-	ſter-	.	.	.	4b-\	-ben	ſchon
.	.	.	.	.	4d\	das	einſt	4d\	-he	-ben	.	.	.	8g/	und	Leib
.	.	.	.	.	.	.	.	.	.	.	.	.	.	8g/	ver-	und
*	*	*custos:D	*	*	*	*	*	*	*	*	*	*	*	*	*	*
!	!	!LO:LB:g=original	!	!	!	!	!	!	!	!	!	!	!	!	!	!
=18-	=18-	=18-	=18-	=18-	=18-	=18-	=18-	=18-	=18-	=18-	=18-	=18-	=18-	=18-	=18-	=18-
2D/	.	2D/	ſter-	ob	8d\	thut	zeit-	2r	.	.	.	.	.	4.g/	-der-	Le-
.	.	.	.	.	8d\	mir	-lich	.	.	.	.	.	.	.	.	.
.	.	.	.	.	8.d\	Angſt	hier	.	.	.	.	.	.	.	.	.
.	.	.	.	.	.	.	.	.	.	.	.	.	.	8f#X/	.	.
.	.	.	.	.	16c\	und	ver-	.	.	.	.	.	.	.	.	.
*	*	*	*	*	*custos:c	*	*	*	*	*	*	*	*	*	*	*
!	!	!	!	!	!LO:LB:g=original	!	!	!	!	!	!	!	!	!	!	!
2E-X\	.	2E-X\	-ben	ſchon	4c\	weh	-der-	8e-X\	O	O	.	.	.	2g/	-ben	-ben
.	.	.	.	.	.	.	.	8f\	.	.	.	.	.	.	.	.
.	.	.	.	.	8c\	ich	-ben	2g\	.	.	.	.	.	.	.	.
.	.	.	.	.	8B-\	ver-	und	.	.	.	.	.	.	.	.	.
2D/	.	1r	.	.	8B-\	-ge-	ſter-	.	.	.	2r	.	.	1r	.	.
.	.	.	.	.	8B-\	-he	-ben	.	.	.	.	.	.	.	.	.
.	.	.	.	.	8A/	O	O	8f\	ich	Herr	.	.	.	.	.	.
.	.	.	.	.	8B-\	.	.	8f\	ver-	O	.	.	.	.	.	.
*	*	*	*	*	*	*	*	*custos:e-	*	*	*	*	*	*	*	*
!	!	!	!	!	!	!	!	!LO:LB:g=original	!	!	!	!	!	!	!	!
2C/	.	.	.	.	4c\	.	.	2e-X\	-ge-	Hei-	2cc\	ſter-	ob	.	.	.
.	.	.	.	.	8c\	ich	Herr	.	.	.	.	.	.	.	.	.
.	.	.	.	.	8c\	ver-	O	.	.	.	.	.	.	.	.	.
=19-	=19-	=19-	=19-	=19-	=19-	=19-	=19-	=19-	=19-	=19-	=19-	=19-	=19-	=19-	=19-	=19-
2GG/	.	4r	.	.	4.c\	-ge-	Hei-	2d\	-he	-land	2dd\	-ben	ſchon	2r	.	.
.	.	8G\	und	Leib	.	.	.	.	.	.	.	.	.	.	.	.
.	.	8D/	ver-	und	8Bn\	.	.	.	.	.	.	.	.	.	.	.
*	*	*	*	*	*	*	*	*	*	*	*custos:cc	*	*	*	*	*
!	!	!	!	!	!	!	!	!	!	!	!LO:LB:g=original	!	!	!	!	!
4C/	.	2E-X\	-der-	See-	2c\	-he	-land	2r	.	.	4r	.	.	4r	.	.
4E-X\	.	.	.	.	.	.	.	.	.	.	8cc\	und	Leib	4g/	das	ein-
.	.	.	.	.	.	.	.	.	.	.	8g\	ver-	und	.	.	.
2D/	.	2D/	-ben	-le	4r	.	.	1r	.	.	2a\	-der-	Le-	8g/	thut	-mal
.	.	.	.	.	.	.	.	.	.	.	.	.	.	8g/	mir	zeit-
.	.	.	.	.	4d\	das	einſt	.	.	.	.	.	.	8fny/	angſt	-lich
.	.	.	.	.	.	.	.	.	.	.	.	.	.	8fny/	un(d)	ver-
2A\	.	2r	.	.	8d\	thut	zeit-	.	.	.	2a\	-ben	-ben	4e/	weh	-der-
.	.	.	.	.	8c\	mir	-lich	.	.	.	.	.	.	.	.	.
.	.	.	.	.	8.c\	angſt	hier	.	.	.	.	.	.	8e/	ich	-ben
.	.	.	.	.	.	.	.	.	.	.	.	.	.	8d/	ver-	und
.	.	.	.	.	16c\	und	ver-	.	.	.	.	.	.	.	.	.
*	*	*	*	*	*custos:c	*	*	*	*	*	*	*	*	*	*	*
!	!	!	!	!	!LO:PB:g=original	!	!	!	!	!	!	!	!	!	!	!
=20-	=20-	=20-	=20-	=20-	=20-	=20-	=20-	=20-	=20-	=20-	=20-	=20-	=20-	=20-	=20-	=20-
4F\	.	4r	.	.	4c\	weh	-der-	1r	.	.	2r	.	.	2d/	-ge-	ſter-
4G\	.	4G\	das	ein-	8B-y\	ich	-ben	.	.	.	.	.	.	.	.	.
.	.	.	.	.	8B-\	ver-	und	.	.	.	.	.	.	.	.	.
2D/	.	8G\	thut	-ſten	2A/	-ge-	ſter-	.	.	.	4r	.	.	2d/	-he	-ben
.	.	8F\	mir	hier	.	.	.	.	.	.	.	.	.	.	.	.
.	.	8.F\	angſt	zeit-	.	.	.	.	.	.	4dd\	das	ein-	.	.	.
.	.	16E-X\	und	-lich	.	.	.	.	.	.	.	.	.	.	.	.
*	*	*	*	*	*	*	*	*	*	*	*	*	*	*custos:f#	*	*
!	!	!	!	!	!	!	!	!	!	!	!	!	!	!LO:LB:g=original	!	!
2E-X\	.	4E-\	weh	ſter-	2G/	-he	-ben	4r	.	.	8dd\	thut	-mal	1r	.	.
.	.	.	.	.	.	.	.	.	.	.	8cc\	mir	zeit-	.	.	.
.	.	8E-X\	ich	-ben	.	.	.	4g\	das	ein	8cc\	angſt	-lich	.	.	.
.	.	8E-\	ver-	ver-	.	.	.	.	.	.	8cc\	und	ver-	.	.	.
2D/	.	2D/	-ge-	-der-	2r	.	.	8g\	thut	zeit-	4cc\	weh	-der-	.	.	.
.	.	.	.	.	.	.	.	8f\	mir	-lich	.	.	.	.	.	.
.	.	.	.	.	.	.	.	8.f\	angſt	hier	2b-\	ich	-ben	.	.	.
.	.	.	.	.	.	.	.	16e-X\	und	ver-	.	.	.	.	.	.
*custos:C	*	*custos:C	*	*	*	*	*	*	*	*	*	*	*	*	*	*
!LO:LB:g=original	!	!LO:LB:g=original	!	!	!	!	!	!	!	!	!	!	!	!	!	!
=21-	=21-	=21-	=21-	=21-	=21-	=21-	=21-	=21-	=21-	=21-	=21-	=21-	=21-	=21-	=21-	=21-
2C/	.	8C/	-he	-ben	0r	.	.	4e-y\	weh	-der-	.	.	.	1r	.	.
.	.	8C/	das	hier	.	.	.	.	.	.	.	.	.	.	.	.
.	.	8.C/	thut	zeit-	.	.	.	8e-\	ich	-ben	4a\	ver-	und	.	.	.
.	.	.	.	.	.	.	.	8e-\	ver-	und	.	.	.	.	.	.
.	.	16BB-/	mir	-lich	.	.	.	.	.	.	.	.	.	.	.	.
2BB-/	.	4BB-/	weh	ſter-	.	.	.	2d\	-ge-	ſter-	4.a\	-ge-	ſter-	.	.	.
.	.	8BB-/	ich	-ben	.	.	.	.	.	.	.	.	.	.	.	.
.	.	8BB-/	ver-	ver-	.	.	.	.	.	.	8g/	-he	-ben	.	.	.
2AA/	.	2AA/	-ge-	-der-	.	.	.	2c/	-he	-ben	8a\	o	o	2f#X/	ſter-	ob
.	.	.	.	.	.	.	.	.	.	.	8b-\	.	.	.	.	.
.	.	.	.	.	.	.	.	.	.	.	2cc\	.	.	.	.	.
2GG/	.	2GG/	-he	-ben	.	.	.	4r	.	.	.	.	.	2g/	-ben	schon
.	.	.	.	.	.	.	.	8.d\	O	O	8b-\	ich	Herr	.	.	.
.	.	.	.	.	.	.	.	.	.	.	8b-\	ver	o	.	.	.
.	.	.	.	.	.	.	.	16e-\	.	.	.	.	.	.	.	.
*	*	*	*	*	*	*	*	*	*	*	*custos:a	*	*	*	*	*
!	!	!	!	!	!	!	!	!	!	!	!LO:LB:g=original	!	!	!	!	!
=22-	=22-	=22-	=22-	=22-	=22-	=22-	=22-	=22-	=22-	=22-	=22-	=22-	=22-	=22-	=22-	=22-
2FF/	.	1r	.	.	8A/	O	O	2f\	.	.	4a\	ge-	Hei-	4r	.	.
.	.	.	.	.	8B-\	.	.	.	.	.	.	.	.	.	.	.
.	.	.	.	.	2c\	.	.	.	.	.	4a\	-he	-land	8cc\	und	Leib
.	.	.	.	.	.	.	.	.	.	.	.	.	.	8a\	ver-	ind
2GG/	#	.	.	.	.	.	.	4d\	ich	Herr	2r	.	.	2g/	-ber-	Le-
.	.	.	.	.	8Bny\	ich	Herr	4d\	ver-	O	.	.	.	.	.	.
.	.	.	.	.	8B\	ver-	O	.	.	.	.	.	.	.	.	.
*	*	*	*	*	*	*	*	*custos:e-	*	*	*	*	*	*	*	*
!	!	!	!	!	!	!	!	!LO:PB:g=original	!	!	!	!	!	!	!	!
4.C/	.	4r	.	.	4c\	-ge-	Hei-	2e-X\	-ge-	Hei-	2r	.	.	4g/	-ben	-ben
.	.	8C/	O	O	4c\	-he	-land	.	.	.	.	.	.	4g/	das	ein-
8D/	.	8D/	.	.	.	.	.	.	.	.	.	.	.	.	.	.
2E-X\	.	2E-X\	.	.	4r	.	.	2e-\	-he	-land	4r	.	.	8g/	thut	-mal
.	.	.	.	.	.	.	.	.	.	.	.	.	.	8g/	mir	zeit-
.	.	.	.	.	8.G/	O	O	.	.	.	8b-\	o	o	8g/	angſt	-lich
.	.	.	.	.	.	.	.	.	.	.	8cc\	.	.	8g/	und	ver-
.	.	.	.	.	16A\	.	.	.	.	.	.	.	.	.	.	.
=23-	=23-	=23-	=23-	=23-	=23-	=23-	=23-	=23-	=23-	=23-	=23-	=23-	=23-	=23-	=23-	=23-
4.BB-/	.	4r	.	.	2B-\	.	.	8d\	O	O	2dd\	.	.	4fny/	weh	-der-
.	.	.	.	.	.	.	.	8eny\	.	.	.	.	.	.	.	.
.	.	8BB-/	O	O	.	.	.	2f\	.	.	.	.	.	8f/	ich	-ben
8C/	.	8C/	.	.	.	.	.	.	.	.	.	.	.	8e-X/	ver-	und
4.D/	.	4.D/	.	.	4r	.	.	.	.	.	2r	.	.	4d/	-ge-	ſter-
.	.	.	.	.	8F/	O	O	8f\	ich	Herr	.	.	.	4d/	-he	-ben
8Eny\	.	8Eny\	.	.	8G/	.	.	8d\	ver-	O	.	.	.	.	.	.
*	*	*	*	*	*custos:A	*	*	*	*	*	*	*	*	*	*	*
!	!	!	!	!	!LO:LB:g=original	!	!	!	!	!	!	!	!	!	!	!
1F	.	1.F	.	.	4.A/	.	.	4c/	-ge-	Hei-	2r	.	.	2r	.	.
.	.	.	.	.	.	.	.	4c/	-he	-land	.	.	.	.	.	.
.	.	.	.	.	8B-\	.	.	.	.	.	.	.	.	.	.	.
.	.	.	.	.	2c\	.	.	8F/	O	O	4.f/	o	o	4.a\	/weh	/ver-
.	.	.	.	.	.	.	.	8G/	.	.	.	.	.	.	.	.
.	.	.	.	.	.	.	.	4.A/	.	.	.	.	.	.	.	.
.	.	.	.	.	.	.	.	.	.	.	8g/	.	.	8b-\	ich	-der-
*	*	*	*	*	*	*	*	*	*	*	*	*	*	*custos:cc	*	*
!	!	!	!	!	!	!	!	!	!	!	!	!	!	!LO:LB:g=original	!	!
=24-	=24-	=24-	=24-	=24-	=24-	=24-	=24-	=24-	=24-	=24-	=24-	=24-	=24-	=24-	=24-	=24-
2F\	.	.	.	.	2r	.	.	.	.	.	4.a\	.	.	4.cc\	ver-	-ben
.	.	.	.	.	.	.	.	8B-/	.	.	.	.	.	.	.	.
.	.	.	.	.	.	.	.	4c/	.	.	.	.	.	.	.	.
.	.	.	.	.	.	.	.	.	.	.	8b-\	.	.	8dd\	-ge-	und
!	!	!	!	!	!	!	!	!	!	!	!	!	!	!LO:TX:t=P:problem:nie zgadza się ilość sylab w powtórzeniu drugiego tekstu	!	!
2E-X\	.	4E-X\	ich	Herr	1c	O	O	4r	.	.	2cc\	.	.	1ee-X	-he/	ſterben/
.	.	4E-\	ver-	O	.	.	.	8g\	ich	Herr	.	.	.	.	.	.
.	.	.	.	.	.	.	.	8g\	ver-	O	.	.	.	.	.	.
1F	.	0F	-ge-	Hei-	.	.	.	0f	-ge-	Hei-	4a\	ich	Herr	.	.	.
.	.	.	.	.	.	.	.	.	.	.	4a\	ver-	o	.	.	.
.	.	.	.	.	4B-\	ich	Herr	.	.	.	(1b-\	-ge-	Hei-	4dd\	ich	Herr
.	.	.	.	.	4B-\	ver-	O	.	.	.	.	.	.	4dd\	ver-	O
=25-	=25-	=25-	=25-	=25-	=25-	=25-	=25-	=25-	=25-	=25-	=25-	=25-	=25-	=25-	=25-	=25-
1F	.	.	.	.	1c	-ge-	Hei-	.	.	.	.	.	.	1cc	-ge-	Hei-
.	.	.	.	.	.	.	.	.	.	.	2a\)	.	.	.	.	.
1BB-	.	1BB-	-he	-land	1B-	-he	-land	1f	-he	-land	1b-	-he	-land	1dd	-he	-land
*clefC4	*	*	*	*	*	*	*	*	*	*	*	*	*	*	*	*
=26-	=26-	=26-	=26-	=26-	=26-	=26-	=26-	=26-	=26-	=26-	=26-	=26-	=26-	=26-	=26-	=26-
1B-X	.	00r	.	.	2r	.	.	0r	.	.	4f/	lin-	blei-	2r	.	.
.	.	.	.	.	.	.	.	.	.	.	8f/	-de-	-bſtu	.	.	.
.	.	.	.	.	.	.	.	.	.	.	8f/	-re	doch	.	.	.
*	*	*	*	*	*	*	*	*	*	*	*custos:g	*	*	*	*	*
!	!	!	!	!	!	!	!	!	!	!	!LO:LB:g=original	!	!	!	!	!
.	.	.	.	.	4B-\	lin-	blei-	.	.	.	4.g/	ſol-	mei-	4d/	lin-	blei-
.	.	.	.	.	8B-\L	-de-	-bſtu	.	.	.	.	.	.	8d/	-de-	-bſtu
.	.	.	.	.	8B-\J	-re	doch	.	.	.	8g/	-ches	-nem	8d/	-re	doch
2c\	.	.	.	.	4.c\	ſol-	mei-	.	.	.	8a\	Lei-	Her-	4.eny/	ſol-	in
.	.	.	.	.	.	.	.	.	.	.	8g/	.	.	.	.	.
.	.	.	.	.	.	.	.	.	.	.	2g/	.	.	.	.	.
.	.	.	.	.	8c\	-ches	-nem	.	.	.	.	.	.	8cc\	-ches	mein
2d\	.	.	.	.	2d\	Lei-	Her-	.	.	.	.	.	.	2a\	Lei-	Hert-
.	.	.	.	.	.	.	.	.	.	.	4f#X/	.	.	.	.	.
*clefF4	*	*	*	*	*	*	*	*custos:d	*	*	*	*	*	*	*	*
!	!	!	!	!	!	!	!	!LO:LB:g=original	!	!	!	!	!	!	!	!
=27-	=27-	=27-	=27-	=27-	=27-	=27-	=27-	=27-	=27-	=27-	=27-	=27-	=27-	=27-	=27-	=27-
2G\	.	.	.	.	4G/	-den	-tzen	4d\	und	mein	2g/	-den	tzen	2bn\	-den	-ze(n)
.	.	.	.	.	4G/	und	mein	4.g\	Laß	hülff	.	.	.	.	.	.
4BB-/	.	.	.	.	4.c\	Laß	hülf	.	.	.	2r	.	.	2r	.	.
.	.	.	.	.	.	.	.	8e\	uns	mein	.	.	.	.	.	.
4F\	.	.	.	.	.	.	.	4.a\	ja	troſt	.	.	.	.	.	.
.	.	.	.	.	8A/	uns	mein	.	.	.	.	.	.	.	.	.
*	*	*	*	*	*custos:d	*	*	*	*	*	*	*	*	*	*	*
!	!	!	!	!	!LO:LB:g=original	!	!	!	!	!	!	!	!	!	!	!
2D/	.	.	.	.	4.d\	ja	troſt	.	.	.	0r	.	.	0r	.	.
.	.	.	.	.	.	.	.	8g\	denn	in	.	.	.	.	.	.
.	.	.	.	.	.	.	.	8f\	wol	al-	.	.	.	.	.	.
.	.	.	.	.	8B-\	denn	in	8e\	von	-lem	.	.	.	.	.	.
2G\	.	.	.	.	8A\	wol	al-	4d\	hier	leid	.	.	.	.	.	.
.	.	.	.	.	8G/	von	-lem	.	.	.	.	.	.	.	.	.
.	.	.	.	.	4F/	hier	leid	8r	.	.	.	.	.	.	.	.
.	.	.	.	.	.	.	.	8e\	ab-	und	.	.	.	.	.	.
*custos:D	*	*	*	*	*	*	*	*	*	*	*	*	*	*	*	*
!LO:LB:g=original	!	!	!	!	!	!	!	!	!	!	!	!	!	!	!	!
=28-	=28-	=28-	=28-	=28-	=28-	=28-	=28-	=28-	=28-	=28-	=28-	=28-	=28-	=28-	=28-	=28-
1D	.	0r	.	.	4r	.	.	1f	-ſchei-	ſchmer-	.	.	.	.	.	.
.	.	.	.	.	4A/	ab-	und	.	.	.	.	.	.	.	.	.
.	.	.	.	.	2Bn\	-ſchei-	Schmer-	.	.	.	.	.	.	.	.	.
2C/	.	.	.	.	2c\	-den	-tzen	2e\	-den	-tzen	4r	.	.	4g/	und	mein
.	.	.	.	.	.	.	.	.	.	.	4c/	und	mein	4.cc\	Laß	hülf
4FF/	.	.	.	.	2r	.	.	2r	.	.	4.fny/	Laß	hülf	.	.	.
.	.	.	.	.	.	.	.	.	.	.	.	.	.	8a\	uns	mein
!LO:TX:t=P:problem:kreska pseudotaktowa	!	!	!	!	!	!	!	!	!	!	!	!	!	!	!	!
4BB-/	.	.	.	.	.	.	.	.	.	.	.	.	.	4.dd\	auch	troſt
.	.	.	.	.	.	.	.	.	.	.	8d/	uns	mein	.	.	.
*	*	*custos:BB-	*	*	*	*	*	*	*	*	*	*	*	*	*	*
!	!	!LO:LB:g=original	!	!	!	!	!	!	!	!	!	!	!	!	!	!
=29-	=29-	=29-	=29-	=29-	=29-	=29-	=29-	=29-	=29-	=29-	=29-	=29-	=29-	=29-	=29-	=29-
2BB-/	.	4BB-/	O	bleib-	1r	.	.	0r	.	.	4.g/	auch	troſt	.	.	.
.	.	.	.	.	.	.	.	.	.	.	.	.	.	8cc\	den	in
.	.	8.BB-/	lin-	-ſtu	.	.	.	.	.	.	.	.	.	8b-y\	wol	al-
.	.	.	.	.	.	.	.	.	.	.	8f/	denn	in	8a\	von	-le(m)
.	.	16BB-/	-de-	doch	.	.	.	.	.	.	.	.	.	.	.	.
*	*	*	*	*	*	*	*	*	*	*	*	*	*	*custos:g	*	*
!	!	!	!	!	!	!	!	!	!	!	!	!	!	!LO:LB:g=original	!	!
2C/	.	4C/	-re	mei-	.	.	.	.	.	.	8e/	auch	al-	4g/	hier	Leid
.	.	.	.	.	.	.	.	.	.	.	8d/	von	-lem	.	.	.
.	.	4C/	ſolch	-ne(m)	.	.	.	.	.	.	4e/	hier	leid	8r	.	.
.	.	.	.	.	.	.	.	.	.	.	.	.	.	8a\	abſ-	und
2D/	.	2D/	lei-	Her-	2r	.	.	.	.	.	4r	.	.	2f#X/	-chei	Schmer-
.	.	.	.	.	.	.	.	.	.	.	4a\	ab-	und	.	.	.
!LO:TX:t=P:problem:kreska pseudotaktowa	!	!	!	!	!	!	!	!	!	!	!	!	!	!	!	!
2GG/	.	4BB-/	-den	-tzne	4D/	und	mein	.	.	.	2bn\	-ſchei-	Schmer-	2g/	den	-zen
.	.	4BB-/	und	mein	4.G/	laß	Hülff	.	.	.	.	.	.	.	.	.
*	*	*	*	*	*	*	*	*	*	*	*custos:cc	*	*	*	*	*
!	!	!	!	!	!	!	!	!	!	!	!LO:LB:g=original	!	!	!	!	!
=30-	=30-	=30-	=30-	=30-	=30-	=30-	=30-	=30-	=30-	=30-	=30-	=30-	=30-	=30-	=30-	=30-
4C/	.	4.C/	laß	Hülff	.	.	.	1r	.	.	2cc\	-den	-tzen	2r	.	.
.	.	.	.	.	8E/	uns	mein	.	.	.	.	.	.	.	.	.
4AA/	.	.	.	.	4.A/	ja	Trost	.	.	.	.	.	.	.	.	.
.	.	8AA/	uns	mein	.	.	.	.	.	.	.	.	.	.	.	.
4.D/	.	4.D/	auch	troſt	.	.	.	.	.	.	2r	.	.	4a\	Lin-	bleib-
.	.	.	.	.	8G/	denn	in	.	.	.	.	.	.	.	.	.
.	.	.	.	.	8F/	wol	al-	.	.	.	.	.	.	8a\	-de-	-ſtu
8C/	.	8C/	den(n)	in	8E/	von	-lem	.	.	.	.	.	.	8a\	-re	doch
4BB-/	.	8BB-/	wol	al-	2D/	hier	leid	4d\	lin-	bleib-	1r	.	.	4.b-\	ſol-	mein
.	.	8AA/	von	-lem	.	.	.	.	.	.	.	.	.	.	.	.
4GG/	-	4GG/	hier	leid	.	.	.	8d\	-de-	-ſtu	.	.	.	.	.	.
.	.	.	.	.	.	.	.	8d\	-re	doch	.	.	.	8b-\	-ches	Her-
!LO:TX:t=P:problem:kreska pseudotaktowa	!	!	!	!	!	!	!	!	!	!	!	!	!	!	!	!
2C/	.	4r	.	.	2r	.	.	4.e\	ſol-	mei-	.	.	.	1cc\	lei-	.
.	.	4C/	ab-	und	.	.	.	.	.	.	.	.	.	.	.	.
.	.	.	.	.	.	.	.	8e\	-ches	-nem	.	.	.	.	.	.
=31-	=31-	=31-	=31-	=31-	=31-	=31-	=31-	=31-	=31-	=31-	=31-	=31-	=31-	=31-	=31-	=31-
2AA/	.	2AA/	-ſchei-	ſchmer-	2r	.	.	2f#X\	lei-	Her-	2r	.	.	.	.	.
2GG/	.	2GG/	-den	-tzen	4r	.	.	2g\	-den	-tzne	4d/	und	mein	2bn\	-den	-tzen
*	*	*	*	*	*	*ij	*ij	*	*	*	*	*	*	*	*	*
.	.	.	.	.	4G/	und	mein	.	.	.	4.g/	laß	Hülff	.	.	.
*	*	*	*	*	*custos:c	*	*	*custos:c	*	*	*	*	*	*	*	*
!	!	!	!	!	!LO:LB:g=original	!	!	!LO:LB:g=original	!	!	!	!	!	!	!	!
2C/	.	4r	.	.	4.c\	laß	Hülff	2r	.	.	.	.	.	4cc\	und	mein
.	.	.	.	.	.	.	.	.	.	.	8f/	uns	mein	.	.	.
.	.	4C/	und	mein	.	.	.	.	.	.	8e/	ja	Trost	4.cc\	laß	Hülff
.	.	.	.	.	8B-y\	uns	mein	.	.	.	8e/	denn	in	.	.	.
*	*	*custos:F	*	*	*	*	*	*	*	*	*	*	*	*	*	*
!	!	!LO:LB:g=original	!	!	!	!	!	!	!	!	!	!	!	!	!	!
4F\	.	4.F\	laß	Hülff	8.A/	ja	Trost	4c/	und	mein	8.f/	wol	al-	.	.	.
.	.	.	.	.	.	.	.	.	.	.	.	.	.	8a\	uns	mein
.	.	.	.	.	16G/	denn	in	.	.	.	16g/	von	-lem	.	.	.
!LO:TX:t=P:problem:kreska pseudotaktowa	!	!	!	!	!	!	!	!	!	!	!	!	!	!	!	!
4D/	-	.	.	.	8F/	wol	al-	4f#\	laß	Hülff	4a\	hier	leid	4.dd\	ja	Trost
.	.	8D/	uns	mein	8F/	von	-lem	.	.	.	.	.	.	.	.	.
=32-	=32-	=32-	=32-	=32-	=32-	=32-	=32-	=32-	=32-	=32-	=32-	=32-	=32-	=32-	=32-	=32-
4.G\	.	4.G\	auch	Trost	4B-\	hier	leid	4d\	uns	mein	1r	.	.	.	.	.
.	.	.	.	.	.	.	.	.	.	.	.	.	.	8cc\	denn	in
.	.	.	.	.	4B-\	und	mein	4.g\	auch	Troſt	.	.	.	8b-y\	auch	al-
8F\	.	8F\	denn	in	.	.	.	.	.	.	.	.	.	8a\	von	-lem
*	*	*	*	*	*	*	*	*	*	*	*	*	*	*custos:g	*	*
!	!	!	!	!	!	!	!	!	!	!	!	!	!	!LO:PB:g=original	!	!
4E-X\	.	8E-X\	wol	al-	4c\	laß	Hülff	.	.	.	.	.	.	2g/	hier	leid
.	.	8D/	von	-lem	.	.	.	8fny\	denn	in	.	.	.	.	.	.
4C/	.	4C/	hier	leid	4A/	uns	mein	8e-X\	wol	al-	.	.	.	.	.	.
.	.	.	.	.	.	.	.	8d\	von	-lem	.	.	.	.	.	.
*custos:F	*	*	*	*	*	*	*	*	*	*	*	*	*	*	*	*
!LO:LB:g=original	!	!	!	!	!	!	!	!	!	!	!	!	!	!	!	!
4F\	.	1r	.	.	4.d\	ja	Trost	2c/	hier	Leid	4c/	/und	/mein	4r	.	.
4D/	.	.	.	.	.	.	.	.	.	.	4.f/	laß	Hülff	4a\	/und	/mein
.	.	.	.	.	8c\	denn	in	.	.	.	.	.	.	.	.	.
4B-\	.	.	.	.	8.B-\	wol	al-	2r	.	.	.	.	.	4.dd\	laß	Hülff
.	.	.	.	.	.	.	.	.	.	.	8d/	uns	mein	.	.	.
.	.	.	.	.	16A/	von	-lem	.	.	.	.	.	.	.	.	.
4G\	.	.	.	.	4G/	hier	leid	.	.	.	4.g/	ja-	Trost	.	.	.
.	.	.	.	.	.	.	.	.	.	.	.	.	.	8b-\	uns	mein
=33-	=33-	=33-	=33-	=33-	=33-	=33-	=33-	=33-	=33-	=33-	=33-	=33-	=33-	=33-	=33-	=33-
2C/	.	0r	.	.	1r	.	.	4e-X\	lin-	bleib-	.	.	.	4.ee-X\	ja	Trost
.	.	.	.	.	.	.	.	.	.	.	8g/	denn	in	.	.	.
.	.	.	.	.	.	.	.	8e-\	-de-	-ſtu	8cc\	wol	al-	.	.	.
.	.	.	.	.	.	.	.	8e-\	-re	doch	8b-y\	von	-lem	8dd\	denn	in
2F\	.	.	.	.	.	.	.	4.f\	ſol-	mei-	4a\	hier/	leid/	8cc\	auch	al-
.	.	.	.	.	.	.	.	.	.	.	.	.	.	8b-\	von	-lem
!	!	!	!	!	!	!	!	!	!	!	!LO:TX:t=P:problem:w źródle pauza ćwierćnutowa	!	!	!	!	!
.	.	.	.	.	.	.	.	.	.	.	8r	.	.	4cc\	hier/	leid/
.	.	.	.	.	.	.	.	8f\	-che	-nem	8a\	ab-	und	.	.	.
*	*	*	*ij	*ij	*	*	*	*	*	*	*custos:b	*	*	*	*	*
!	!	!	!	!	!	!	!	!	!	!	!LO:PB:g=original	!	!	!	!	!
1G	.	.	.	.	2r	.	.	1g	Lei-	Her-	4b\	-ſchei-	Schmer-	4r	.	.
.	.	.	.	.	.	.	.	.	.	.	2cc\	.	.	4ee-X\	ab-	in
.	.	.	.	.	4r	.	.	.	.	.	.	.	.	2dd\	-ſchei-	Schmer-
.	.	.	.	.	4G/	und	mein	.	.	.	4b\	.	.	.	.	.
=34-	=34-	=34-	=34-	=34-	=34-	=34-	=34-	=34-	=34-	=34-	=34-	=34-	=34-	=34-	=34-	=34-
4C/	.	4C/	und	mein	4.c\	laß	Hülff	4eny\	-den	-tzen	2cc\	-den	-tzen	2cc\	-den	-tzen
4F\	.	4.F\	laß	Hülff	.	.	.	4c/	und	mein	.	.	.	.	.	.
.	.	.	.	.	8A/	uns	mein	.	.	.	.	.	.	.	.	.
*	*	*	*	*	*	*	*	*custos:f	*	*	*	*	*	*	*	*
!	!	!	!	!	!	!	!	!LO:LB:g=original	!	!	!	!	!	!	!	!
4D/	.	.	.	.	4.d\	ja	Trost	4f\	laß	Hülff	2r	.	.	2r	.	.
.	.	8D/	uns	mein	.	.	.	.	.	.	.	.	.	.	.	.
2G\	.	4.G\	ja	Trost	.	.	.	4d\	uns	mein	.	.	.	.	.	.
.	.	.	.	.	8c\	denn	in	.	.	.	.	.	.	.	.	.
.	.	.	.	.	8B-\	wol	al-	4.g\	ja	Tropf	2r	.	.	4b-\	lin-	bleib-
.	.	8F\	denn	in	8A/	von	-lem	.	.	.	.	.	.	.	.	.
4E-X\	.	8E-X\	wol	al-	4G/	hier	leid	.	.	.	.	.	.	8b-\	-de-	-ſtu
.	.	8D/	von	-lem	.	.	.	8f\	denn	in	.	.	.	8b-\	-re	doch
2C/	.	4C/	hier/	leid/	2r	.	.	8e-X\	auch	al-	4g/	und	mein	4.cc\	ſol-	mei-
.	.	.	.	.	.	.	.	8d\	von	-len	.	.	.	.	.	.
.	.	4C/	/und	/mein	.	.	.	8c\	hier	Leid	4.a\	laß	Hülff	.	.	.
.	.	.	.	.	.	.	.	8B-/	.	und	.	.	.	8ee-X\	-ches	-nem
*	*	*	*	*	*	*Xij	*Xij	*	*	*	*	*	*	*custos:dd	*	*
!	!	!	!	!	!	!	!	!	!	!	!	!	!	!LO:LB:g=original	!	!
=35-	=35-	=35-	=35-	=35-	=35-	=35-	=35-	=35-	=35-	=35-	=35-	=35-	=35-	=35-	=35-	=35-
4.D/	.	4.D/	laß	Hülff	0r	.	.	8.A/	-ſchei-	Schmer-	.	.	.	4dd\	lei-	Her-
.	.	.	.	.	.	.	.	.	.	.	8f/	uns	mein	.	.	.
.	.	.	.	.	.	.	.	16G/	.	.	.	.	.	.	.	.
.	.	.	.	.	.	.	.	4F/	.	.	4.b-y\	ja	Tropf	4dd\	-den	-tzen
8BB-/	.	8BB-/	uns	mein	.	.	.	.	.	.	.	.	.	.	.	.
4.E-X\	.	4.E-X\	ja	Trost	.	.	.	2G/	-den	-tzen	.	.	.	2r	.	.
.	.	.	.	.	.	.	.	.	.	.	8a\	denn	in	.	.	.
.	.	.	.	.	.	.	.	.	.	.	8g/	wol	al-	.	.	.
8D/	.	8D/	denn	in	.	.	.	.	.	.	8g/	von	-len	.	.	.
*	*	*custos:C	*	*	*	*	*	*	*	*	*	*	*	*	*	*
!	!	!LO:LB:g=original	!	!	!	!	!	!	!	!	!	!	!	!	!	!
4.C/	.	4.C/	wol	al-	.	.	.	4r	.	.	4cc\	hier	Leid	4g/	und	mein
.	.	.	.	.	.	.	.	4c/	und	mein	4g/	ab-	und	4.cc\	laß	Hülff
8BB-/	.	8BB-/	von	-lem	.	.	.	.	.	.	.	.	.	.	.	.
4AA/	.	4AA/	hier	leid	.	.	.	4.f\	laß	Hülff	4a\	-ſchei-	Schmer-	.	.	.
.	.	.	.	.	.	.	.	.	.	.	.	.	.	8a\	uns	mein
*	*	*	*Xij	*Xij	*	*	*	*	*	*	*	*	*	*	*	*
4BB-/	.	4BB-/	ab-	und	.	.	.	.	.	.	4f/	-den	-tzen	4.dd\	ja	Troſt
.	.	.	.	.	.	.	.	8d\	uns	mein	.	.	.	.	.	.
=36-	=36-	=36-	=36-	=36-	=36-	=36-	=36-	=36-	=36-	=36-	=36-	=36-	=36-	=36-	=36-	=36-
2GG/	.	2GG/	-ſchei-	Schmer-	4B-\	lin-	bleib-	4.g\	ja	Tropf	2r	.	.	.	.	.
.	.	.	.	.	.	.	.	.	.	.	.	.	.	8cc\	denn	in
.	.	.	.	.	8.B-\	-de-	-ſtu	.	.	.	.	.	.	8b-\	auch	al-
.	.	.	.	.	.	.	.	8f\	denn	in	.	.	.	8a\	von	-lem
.	.	.	.	.	16B-\	-re	doch	.	.	.	.	.	.	.	.	.
*	*	*	*	*	*	*	*	*custos:e	*	*	*	*	*	*	*	*
!	!	!	!	!	!	!	!	!LO:LB:g=original	!	!	!	!	!	!	!	!
2C/	.	2C/	-den	-tze(n)	4.c\	ſol-	mei-	8eny\	auch	al-	4g/	/denn	/in	2g/	hier	Leid
.	.	.	.	.	.	.	.	8d\	von	-len	.	.	.	.	.	.
.	.	.	.	.	.	.	.	8.e\	hier	Leid	4cc\	wol	al-	.	.	.
.	.	.	.	.	8c\	-ches	-nem	.	.	.	.	.	.	.	.	.
.	.	.	.	.	.	.	.	16e\	ab-	und	.	.	.	.	.	.
*	*	*	*ij	*ij	*custos:d	*	*	*	*	*	*	*	*	*	*	*
!	!	!	!	!	!LO:LB:g=original	!	!	!	!	!	!	!	!	!	!	!
2D/	#	4r	.	.	2d\	lei-	Her-	2f#X\	-ſchei-	Schmer-	4a\	von	-len	4a\	/und	/mein
.	.	4D/	und	mein	.	.	.	.	.	.	8dd\	hier	Leid	4.b-\	laß	Hülff
.	.	.	.	.	.	.	.	.	.	.	8b-\	ab-	und	.	.	.
*	*	*	*	*	*	*	*	*	*	*	*custos:b	*	*	*	*	*
!	!	!	!	!	!	!	!	!	!	!	!LO:LB:g=original	!	!	!	!	!
4.E-X\	.	4.E-X\	laß	Hülff	2G/	-den	-tzen	2g\	-den	-tzen	8.b-\	-ſchei-	Schmer-	.	.	.
.	.	.	.	.	.	.	.	.	.	.	.	.	.	8g/	uns	mein
.	.	.	.	.	.	.	.	.	.	.	16a\	.	.	.	.	.
.	.	.	.	.	.	.	.	.	.	.	4g#X/	-den/	-tzen/	4.cc\	ja	Troſt
8C/	.	8C/	uns	mein	.	.	.	.	.	.	.	.	.	.	.	.
=37-	=37-	=37-	=37-	=37-	=37-	=37-	=37-	=37-	=37-	=37-	=37-	=37-	=37-	=37-	=37-	=37-
4.F\	.	4.F\	ja	Trost	2r	.	.	1r	.	.	4r	.	.	.	.	.
.	.	.	.	.	.	.	.	.	.	.	.	.	.	8b-\	denn	in
.	.	.	.	.	.	.	.	.	.	.	4c/	/denn	/in	8a\	auch	al
8Eny\	.	8Eny\	denn	in	.	.	.	.	.	.	.	.	.	8g/	von	lem
*custos:D	*	*	*	*	*	*	*	*	*	*	*	*	*	*	*	*
!LO:LB:g=original	!	!	!	!	!	!	!	!	!	!	!	!	!	!	!	!
8D\	.	8D\	wol	al-	4F/	und	mein	.	.	.	4.f/	wol	al-	4a\	hier/	Leid/
8C/	.	8C/	von	-lem	.	.	.	.	.	.	.	.	.	.	.	.
4BB-/	.	4BB-/	hier	leid	4.B-\	laß	Hülff	.	.	.	.	.	.	4r	.	.
.	.	.	.	.	.	.	.	.	.	.	8d/	von	-len	.	.	.
4GG/	.	1r	.	.	.	.	.	4d\	/ja	/Tropf	4.gny/	hier	Leid	2r	.	.
.	.	.	.	.	8G/	uns	mein	.	.	.	.	.	.	.	.	.
4C/	.	.	.	.	8c\	ja	Troſt	4e\	denn	in	.	.	.	.	.	.
.	.	.	.	.	8B-\	denn	in	.	.	.	8g/	ab-	und	.	.	.
4FF/	.	.	.	.	8A\	auch	al	4c/	auch	al-	8cc\	-ſchei-	Schmer-	4r	.	.
.	.	.	.	.	8G/	von	lem	.	.	.	8b-\	.	.	.	.	.
4D/	.	.	.	.	4F/	hier	Leid	4.fny\	von	-len	4a\	-den/	-tzen/	4dd\	ab-	und
*	*	*	*Xij	*Xij	*	*	*	*	*	*	*	*	*	*custos:a	*	*
!	!	!	!	!	!	!	!	!	!	!	!	!	!	!LO:LB:g=original	!	!
=38-	=38-	=38-	=38-	=38-	=38-	=38-	=38-	=38-	=38-	=38-	=38-	=38-	=38-	=38-	=38-	=38-
2D/	.	4r	.	.	2r	.	.	.	.	.	4dd\	/denn	/in	2.a\	-ſchei-	Schmer-
.	.	.	.	.	.	.	.	8e\	hier	leid	.	.	.	.	.	.
.	.	4D/	ab-	und	.	.	.	8d\	ab	un	4.dd\	wol	al-	.	.	.
.	.	.	.	.	.	.	.	8c/	-ſchei-	Schemr-	.	.	.	.	.	.
2.BB-/	.	2.BB-/	-ſchei-	Schmer-	4r	.	.	1d	-den/	-tzen	.	.	.	.	.	.
.	.	.	.	.	.	.	.	.	.	.	8cc\	von	-len	.	.	.
.	.	.	.	.	4d\	ab-	und	.	.	.	4.b-\	hier	Leid	4g/	-de	-tzen
.	.	.	.	.	2.B-\	-ſchei-	Schmer-	.	.	.	.	.	.	2r	.	.
.	.	.	.	.	.	.	.	.	.	.	8b-\	ab-	und	.	.	.
4C/	.	4C/	.	.	.	.	.	.	.	.	8a\	-ſchei-	Schmer-	.	.	.
.	.	.	.	.	.	.	.	.	.	.	8g/	.	.	.	.	.
2D/	.	1.D\	.	.	.	.	.	4r	.	.	2f#X/	-den/	-tzen/	2dd\	ab-	und
.	.	.	.	.	8A/	.	.	4d\	ab	un	.	.	.	.	.	.
.	.	.	.	.	8G/	.	.	.	.	.	.	.	.	.	.	.
=39-	=39-	=39-	=39-	=39-	=39-	=39-	=39-	=39-	=39-	=39-	=39-	=39-	=39-	=39-	=39-	=39-
1D	.	.	.	.	1A	.	.	1d	-ſchei-	Schemr-	4r	.	.	4f#X/	.	.
.	.	.	.	.	.	.	.	.	.	.	4dd\	ab-	und	2g/	.	.
.	.	.	.	.	.	.	.	.	.	.	2a\	-ſchei-	Schmer-	.	.	.
.	.	.	.	.	.	.	.	.	.	.	.	.	.	4f#X/	-ſchei-	Schmer-
1GGl/	.	1GGl	-den	-tzen.	1Bnl	-den.	-tzen.	1dl	-den	-tzen	1gl	-den	-tzen	1gl	-den	-tzen
==	==	==	==	==	==	==	==	==	==	==	==	==	==	==	==	==
*-	*-	*-	*-	*-	*-	*-	*-	*-	*-	*-	*-	*-	*-	*-	*-	*-
!!!system-decoration: [(s1,s2,s3,s4,s5)]s6
!!!RDF**kern: l =terminal long
!!!ENC: Anastazja Marusiak
!!!END: 2022-10-28
!!!ENC: Jan Barakat
!!!END: 2022-11-21
!!!YEC: Copyright 2022 Narodowy Instytut Fryderyka Chopina (https://polishscores.org)
!!!YEM: License CC-BY-4.0 (https://creativecommons.org/licenses/by/4.0)
